nalufx-ui/ui/assets/settings.svg

<svg fill="none" height="20" viewBox="0 0 22 20" width="22" xmlns="http://www.w3.org/2000/svg"><path d="m8.25 20-.4-3.2c-.21667-.0833-.42067-.1833-.612-.3-.192-.1167-.37967-.2417-.563-.375l-2.975 1.25-2.749999-4.75 2.574999-1.95c-.01667-.1167-.025-.2293-.025-.338v-.675c0-.108.00833-.22033.025-.337l-2.574999-1.95 2.749999-4.75 2.975 1.25c.18333-.13333.375-.25833.575-.375s.4-.21667.6-.3l.4-3.2h5.5l.4 3.2c.2167.08333.421.18333.613.3.1913.11667.3787.24167.562.375l2.975-1.25 2.75 4.75-2.575 1.95c.0167.11667.025.229.025.337v.675c0 .1087-.0167.2213-.05.338l2.575 1.95-2.75 4.75-2.95-1.25c-.1833.1333-.375.2583-.575.375s-.4.2167-.6.3l-.4 3.2zm2.8-6.5c.9667 0 1.7917-.3417 2.475-1.025s1.025-1.5083 1.025-2.475c0-.96667-.3417-1.79167-1.025-2.475s-1.5083-1.025-2.475-1.025c-.9833 0-1.81267.34167-2.488 1.025-.67467.68333-1.012 1.50833-1.012 2.475 0 .9667.33733 1.7917 1.012 2.475.67533.6833 1.5047 1.025 2.488 1.025zm0-2c-.4167 0-.7707-.146-1.062-.438-.292-.2913-.438-.6453-.438-1.062 0-.41667.146-.77067.438-1.062.2913-.292.6453-.438 1.062-.438s.771.146 1.063.438c.2913.29133.437.64533.437 1.062 0 .4167-.1457.7707-.437 1.062-.292.292-.6463.438-1.063.438zm-1.05 6.5h1.975l.35-2.65c.5167-.1333.996-.3293 1.438-.588.4413-.258.8453-.5703 1.212-.937l2.475 1.025.975-1.7-2.15-1.625c.0833-.2333.1417-.4793.175-.738.0333-.258.05-.5203.05-.787 0-.26667-.0167-.52933-.05-.788-.0333-.258-.0917-.50367-.175-.737l2.15-1.625-.975-1.7-2.475 1.05c-.3667-.38333-.7707-.70433-1.212-.963-.442-.258-.9213-.45367-1.438-.587l-.325-2.65h-1.975l-.35 2.65c-.51667.13333-.99567.329-1.437.587-.442.25867-.84633.57133-1.213.938l-2.475-1.025-.975 1.7 2.15 1.6c-.08333.25-.14167.5-.175.75s-.05.51667-.05.8c0 .2667.01667.525.05.775s.09167.5.175.75l-2.15 1.625.975 1.7 2.475-1.05c.36667.3833.771.704 1.213.962.44133.2587.92033.4547 1.437.588z" fill="#896fff"/></svg>

<svg width="22" height="20" viewBox="0 0 22 20" fill="none" xmlns="http://www.w3.org/2000/svg">
<path d="M8.25 20L7.85 16.8C7.63333 16.7167 7.42933 16.6167 7.238 16.5C7.046 16.3833 6.85833 16.2583 6.675 16.125L3.7 17.375L0.950001 12.625L3.525 10.675C3.50833 10.5583 3.5 10.4457 3.5 10.337V9.662C3.5 9.554 3.50833 9.44167 3.525 9.325L0.950001 7.375L3.7 2.625L6.675 3.875C6.85833 3.74167 7.05 3.61667 7.25 3.5C7.45 3.38333 7.65 3.28333 7.85 3.2L8.25 0H13.75L14.15 3.2C14.3667 3.28333 14.571 3.38333 14.763 3.5C14.9543 3.61667 15.1417 3.74167 15.325 3.875L18.3 2.625L21.05 7.375L18.475 9.325C18.4917 9.44167 18.5 9.554 18.5 9.662V10.337C18.5 10.4457 18.4833 10.5583 18.45 10.675L21.025 12.625L18.275 17.375L15.325 16.125C15.1417 16.2583 14.95 16.3833 14.75 16.5C14.55 16.6167 14.35 16.7167 14.15 16.8L13.75 20H8.25ZM11.05 13.5C12.0167 13.5 12.8417 13.1583 13.525 12.475C14.2083 11.7917 14.55 10.9667 14.55 10C14.55 9.03333 14.2083 8.20833 13.525 7.525C12.8417 6.84167 12.0167 6.5 11.05 6.5C10.0667 6.5 9.23733 6.84167 8.562 7.525C7.88733 8.20833 7.55 9.03333 7.55 10C7.55 10.9667 7.88733 11.7917 8.562 12.475C9.23733 13.1583 10.0667 13.5 11.05 13.5ZM11.05 11.5C10.6333 11.5 10.2793 11.354 9.988 11.062C9.696 10.7707 9.55 10.4167 9.55 10C9.55 9.58333 9.696 9.22933 9.988 8.938C10.2793 8.646 10.6333 8.5 11.05 8.5C11.4667 8.5 11.821 8.646 12.113 8.938C12.4043 9.22933 12.55 9.58333 12.55 10C12.55 10.4167 12.4043 10.7707 12.113 11.062C11.821 11.354 11.4667 11.5 11.05 11.5ZM10 18H11.975L12.325 15.35C12.8417 15.2167 13.321 15.0207 13.763 14.762C14.2043 14.504 14.6083 14.1917 14.975 13.825L17.45 14.85L18.425 13.15L16.275 11.525C16.3583 11.2917 16.4167 11.0457 16.45 10.787C16.4833 10.529 16.5 10.2667 16.5 10C16.5 9.73333 16.4833 9.47067 16.45 9.212C16.4167 8.954 16.3583 8.70833 16.275 8.475L18.425 6.85L17.45 5.15L14.975 6.2C14.6083 5.81667 14.2043 5.49567 13.763 5.237C13.321 4.979 12.8417 4.78333 12.325 4.65L12 2H10.025L9.675 4.65C9.15833 4.78333 8.67933 4.979 8.238 5.237C7.796 5.49567 7.39167 5.80833 7.025 6.175L4.55 5.15L3.575 6.85L5.725 8.45C5.64167 8.7 5.58333 8.95 5.55 9.2C5.51667 9.45 5.5 9.71667 5.5 10C5.5 10.2667 5.51667 10.525 5.55 10.775C5.58333 11.025 5.64167 11.275 5.725 11.525L3.575 13.15L4.55 14.85L7.025 13.8C7.39167 14.1833 7.796 14.504 8.238 14.762C8.67933 15.0207 9.15833 15.2167 9.675 15.35L10 18Z" fill="#896FFF"/>
</svg>
